apps/64/anydesk.svg

<svg xmlns="http://www.w3.org/2000/svg" style="isolation:isolate" width="256" height="256"><defs><filter id="a" x="-200%" y="-200%" width="400%" height="400%" filterUnits="objectBoundingBox" color-interpolation-filters="sRGB"><feGaussianBlur xmlns="http://www.w3.org/2000/svg" in="SourceGraphic" stdDeviation="4.294"/><feOffset xmlns="http://www.w3.org/2000/svg" dy="4" result="pf_100_offsetBlur"/><feFlood xmlns="http://www.w3.org/2000/svg" flood-color="#000" flood-opacity=".4"/><feComposite xmlns="http://www.w3.org/2000/svg" in2="pf_100_offsetBlur" operator="in" result="pf_100_dropShadow"/><feBlend xmlns="http://www.w3.org/2000/svg" in="SourceGraphic" in2="pf_100_dropShadow"/></filter></defs><path d="M165.685 11.947c74.055 0 84.639 10.557 84.639 84.544v59.251c0 73.986-10.584 84.543-84.639 84.543h-75.37c-74.055 0-84.639-10.557-84.639-84.543V96.491c0-73.987 10.584-84.544 84.639-84.544h75.37z" fill="#C8C4B7" filter="url(#a)"/><linearGradient id="b" x1="-.033" y1="-.071" x2="1.03" y2=".998" gradientTransform="matrix(115.55064 0 0 116.17528 70.224 68.912)" gradientUnits="userSpaceOnUse"><stop offset="0%" stop-color="#e72662"/><stop offset="48.272%" stop-color="#ec3c50"/><stop offset="100%" stop-color="#ff7b66"/></linearGradient><path d="M105.713 83.605c20.175-19.982 26.069-19.765 47.164 1.767l16.894 17.243c21.096 21.532 21.223 27.46 1.048 47.442l-20.533 20.337c-20.175 19.982-26.069 19.765-47.164-1.767l-16.895-17.243c-21.095-21.532-21.222-27.46-1.047-47.442l20.533-20.337z" fill="url(#b)"/><path d="M99.669 72.901a227.28 227.28 0 0 1 4.344-4.215 143.794 143.794 0 0 1 4.021-3.672 95.937 95.937 0 0 1 3.756-3.137 57.518 57.518 0 0 1 3.544-2.594 35.933 35.933 0 0 1 3.395-2.053 25.695 25.695 0 0 1 3.304-1.497c1.065-.4 2.162-.704 3.272-.923a17.364 17.364 0 0 1 3.273-.31c1.155 0 2.304.116 3.44.342 1.174.239 2.323.581 3.446 1.013 1.2.472 2.368 1.026 3.492 1.659a42.095 42.095 0 0 1 3.608 2.278 63.88 63.88 0 0 1 3.789 2.898 94.816 94.816 0 0 1 4.046 3.505 176.762 176.762 0 0 1 4.363 4.124c1.6 1.568 3.183 3.151 4.751 4.751l20.614 21.04a324.936 324.936 0 0 1 4.609 4.802c1.36 1.45 2.695 2.922 4.008 4.415a109.341 109.341 0 0 1 3.414 4.085 65.6 65.6 0 0 1 2.808 3.828 41.764 41.764 0 0 1 2.22 3.633 28.717 28.717 0 0 1 1.613 3.505c.42 1.117.755 2.272.988 3.447.219 1.129.329 2.271.329 3.42 0 1.11-.103 2.221-.316 3.311a20.349 20.349 0 0 1-.93 3.311 27.543 27.543 0 0 1-1.523 3.331 38.886 38.886 0 0 1-2.085 3.407 56.65 56.65 0 0 1-2.646 3.55 84.15 84.15 0 0 1-3.188 3.757 147.32 147.32 0 0 1-3.744 4.027 247.824 247.824 0 0 1-4.298 4.344l-25.055 24.816a269.89 269.89 0 0 1-4.344 4.215 155.482 155.482 0 0 1-4.021 3.672 95.937 95.937 0 0 1-3.756 3.137 57.518 57.518 0 0 1-3.544 2.594 38.22 38.22 0 0 1-3.395 2.053 25.695 25.695 0 0 1-3.304 1.497c-1.065.4-2.162.704-3.279.923-1.078.2-2.168.31-3.266.31-1.155 0-2.304-.116-3.44-.342-1.176-.24-2.33-.58-3.446-1.02a27.84 27.84 0 0 1-3.492-1.652 39.526 39.526 0 0 1-3.608-2.285 63.34 63.34 0 0 1-3.789-2.891 100.07 100.07 0 0 1-4.046-3.505 154.552 154.552 0 0 1-4.363-4.131 272.443 272.443 0 0 1-4.751-4.744l-20.614-21.047a321.18 321.18 0 0 1-4.615-4.795 218.08 218.08 0 0 1-4.008-4.415 115.325 115.325 0 0 1-3.408-4.085 67.797 67.797 0 0 1-2.814-3.828 43.232 43.232 0 0 1-2.214-3.633 29.21 29.21 0 0 1-1.613-3.505 21.483 21.483 0 0 1-.988-3.447 17.934 17.934 0 0 1-.019-6.738c.219-1.123.536-2.226.936-3.304.432-1.143.94-2.256 1.523-3.331a36.464 36.464 0 0 1 2.085-3.407 56.65 56.65 0 0 1 2.646-3.55 87.85 87.85 0 0 1 3.188-3.763 156.422 156.422 0 0 1 3.744-4.021 228.615 228.615 0 0 1 4.298-4.344l25.055-24.816zm2.272 2.291a237.056 237.056 0 0 1 4.292-4.163c1.291-1.22 2.601-2.42 3.937-3.595a90.063 90.063 0 0 1 3.621-3.027 54.13 54.13 0 0 1 3.35-2.452 34.316 34.316 0 0 1 3.111-1.885 24.17 24.17 0 0 1 2.911-1.317 17.15 17.15 0 0 1 2.749-.774 14.267 14.267 0 0 1 5.467.026c.994.206 1.962.49 2.904.858 1.065.42 2.098.904 3.092 1.465a38.348 38.348 0 0 1 3.324 2.104 57.887 57.887 0 0 1 3.601 2.75 97.148 97.148 0 0 1 3.924 3.395 167.443 167.443 0 0 1 4.279 4.053 293.16 293.16 0 0 1 4.699 4.698h.006l20.615 21.041v.007c1.539 1.566 3.06 3.15 4.563 4.75a177.584 177.584 0 0 1 3.937 4.331 101.963 101.963 0 0 1 3.305 3.963 63.458 63.458 0 0 1 2.672 3.633 39.15 39.15 0 0 1 2.052 3.356 26.034 26.034 0 0 1 1.427 3.118c.361.949.639 1.923.839 2.917.181.923.271 1.865.271 2.801 0 .91-.084 1.814-.258 2.705a17.367 17.367 0 0 1-.781 2.781 23.893 23.893 0 0 1-1.336 2.924 36.116 36.116 0 0 1-1.917 3.124 55.27 55.27 0 0 1-2.491 3.356 86.143 86.143 0 0 1-3.086 3.627 147.43 147.43 0 0 1-3.659 3.937 260.055 260.055 0 0 1-4.241 4.292l-25.061 24.817a237.056 237.056 0 0 1-4.292 4.163 149.043 149.043 0 0 1-3.937 3.595 90.063 90.063 0 0 1-3.621 3.027 54.13 54.13 0 0 1-3.35 2.452 35.31 35.31 0 0 1-3.111 1.885 24.17 24.17 0 0 1-2.911 1.317 17.66 17.66 0 0 1-2.756.774c-.877.162-1.768.252-2.659.252-.942 0-1.878-.097-2.801-.284-.994-.2-1.962-.484-2.904-.852a25.634 25.634 0 0 1-3.092-1.465 38.676 38.676 0 0 1-3.33-2.104 62.044 62.044 0 0 1-3.602-2.75 102.837 102.837 0 0 1-3.917-3.395 180.283 180.283 0 0 1-4.286-4.053 325.148 325.148 0 0 1-4.698-4.698l-20.615-21.048c-1.54-1.566-3.06-3.15-4.563-4.75a177.584 177.584 0 0 1-3.937-4.331 101.963 101.963 0 0 1-3.305-3.963 61.241 61.241 0 0 1-2.672-3.64 37.98 37.98 0 0 1-2.052-3.349 26.034 26.034 0 0 1-1.427-3.118 17.79 17.79 0 0 1-.839-2.917 14.585 14.585 0 0 1-.019-5.506c.187-.948.452-1.878.787-2.781.38-1.004.826-1.98 1.336-2.924a34.461 34.461 0 0 1 1.917-3.124 55.27 55.27 0 0 1 2.491-3.356 91.535 91.535 0 0 1 3.079-3.627 150.079 150.079 0 0 1 3.666-3.937c1.395-1.449 2.81-2.88 4.241-4.292l25.061-24.817z" fill-rule="evenodd" fill="#666"/><path d="M5.676 126.116v29.626c0 73.986 10.584 84.543 84.639 84.543h75.37c74.055 0 84.639-10.557 84.639-84.543v-29.626H5.676z" fill="#FFF" opacity=".1"/><path d="M128 11.947v228.338h37.685c74.055 0 84.639-10.557 84.639-84.543V96.491c0-73.987-10.584-84.544-84.639-84.544H128z" fill="#FFF" opacity=".2"/><g opacity=".4"><linearGradient id="c" x1=".517" x2=".517" y2="1" gradientTransform="matrix(244.65 0 0 228.34 5.68 11.95)" gradientUnits="userSpaceOnUse"><stop offset="0%" stop-color="#fff"/><stop offset="12.5%" stop-opacity=".098" stop-color="#fff"/><stop offset="92.5%" stop-opacity=".098"/><stop offset="100%" stop-opacity=".498"/></linearGradient><path d="M165.068 11.951c4.328-.01 8.656.04 12.984.138 3.875.078 7.75.226 11.626.452 3.453.196 6.905.481 10.348.854 3.06.335 6.118.786 9.148 1.346a80.47 80.47 0 0 1 8.046 1.916 53.64 53.64 0 0 1 7.023 2.584 40.413 40.413 0 0 1 6.06 3.35 35.176 35.176 0 0 1 5.134 4.215 35.072 35.072 0 0 1 4.22 5.119 41.692 41.692 0 0 1 3.363 6.042 55.982 55.982 0 0 1 2.597 7.005 80.224 80.224 0 0 1 1.918 8.037 124.43 124.43 0 0 1 1.348 9.127c.374 3.439.659 6.878.856 10.326.226 3.861.373 7.732.462 11.593.088 4.323.138 8.646.128 12.96v58.21c.01 4.324-.04 8.637-.128 12.96a325.177 325.177 0 0 1-.462 11.593 200.984 200.984 0 0 1-.856 10.326 124.691 124.691 0 0 1-1.348 9.137 80.687 80.687 0 0 1-1.918 8.027 55.414 55.414 0 0 1-2.597 7.005 41.18 41.18 0 0 1-3.364 6.042 34.559 34.559 0 0 1-4.22 5.119 35.177 35.177 0 0 1-5.134 4.215 40.412 40.412 0 0 1-6.059 3.35 55.138 55.138 0 0 1-7.023 2.594 77.806 77.806 0 0 1-8.046 1.906 120 120 0 0 1-9.148 1.346c-3.443.373-6.895.658-10.348.854-3.875.226-7.75.374-11.626.462-4.328.088-8.656.138-12.984.128H90.942c-4.328.01-8.656-.04-12.984-.128a328.387 328.387 0 0 1-11.626-.462 203.003 203.003 0 0 1-10.348-.854 120 120 0 0 1-9.148-1.346 77.806 77.806 0 0 1-8.046-1.906 55.139 55.139 0 0 1-7.023-2.594 40.413 40.413 0 0 1-6.06-3.35 35.176 35.176 0 0 1-5.134-4.215 34.56 34.56 0 0 1-4.22-5.119 41.183 41.183 0 0 1-3.363-6.042 55.415 55.415 0 0 1-2.597-7.005 80.682 80.682 0 0 1-1.918-8.027 124.688 124.688 0 0 1-1.348-9.137 200.993 200.993 0 0 1-.856-10.326 325.212 325.212 0 0 1-.462-11.593 569.197 569.197 0 0 1-.128-12.96v-58.21c-.01-4.314.04-8.637.128-12.96.089-3.86.236-7.732.462-11.593.197-3.448.482-6.887.856-10.326.335-3.055.787-6.101 1.348-9.127a80.219 80.219 0 0 1 1.918-8.037 55.983 55.983 0 0 1 2.597-7.005 41.695 41.695 0 0 1 3.364-6.042 35.072 35.072 0 0 1 4.22-5.119 35.176 35.176 0 0 1 5.134-4.215 40.413 40.413 0 0 1 6.059-3.35 53.64 53.64 0 0 1 7.023-2.584 80.47 80.47 0 0 1 8.046-1.916 125.11 125.11 0 0 1 9.148-1.346c3.443-.373 6.895-.658 10.348-.854 3.875-.226 7.75-.374 11.626-.452 4.328-.098 8.656-.148 12.984-.138h74.126zm.01 4.009c4.298-.01 8.597.039 12.895.127 3.827.089 7.653.236 11.48.452 3.383.197 6.766.472 10.13.845 2.971.315 5.932.747 8.863 1.297a75.943 75.943 0 0 1 7.653 1.818 50.493 50.493 0 0 1 6.501 2.397 37.038 37.038 0 0 1 5.47 3.026 30.383 30.383 0 0 1 4.524 3.724 31.05 31.05 0 0 1 3.738 4.519 37.271 37.271 0 0 1 3.03 5.443 51.46 51.46 0 0 1 2.4 6.494 75.563 75.563 0 0 1 1.829 7.634c.54 2.928.974 5.875 1.298 8.842.374 3.36.65 6.73.846 10.11.217 3.822.374 7.634.453 11.456.088 4.293.137 8.577.137 12.87v58.212c0 4.293-.049 8.577-.137 12.87a317.503 317.503 0 0 1-.453 11.456c-.196 3.38-.472 6.75-.846 10.12a121.689 121.689 0 0 1-1.298 8.832 75.562 75.562 0 0 1-1.83 7.634 50.902 50.902 0 0 1-2.4 6.494 36.767 36.767 0 0 1-3.03 5.443 30.615 30.615 0 0 1-3.737 4.53 30.938 30.938 0 0 1-4.525 3.713 37.038 37.038 0 0 1-5.469 3.026 49.07 49.07 0 0 1-6.501 2.397 75.942 75.942 0 0 1-7.653 1.818c-2.931.55-5.892.982-8.863 1.306-3.364.364-6.747.649-10.13.836-3.827.216-7.653.373-11.48.452-4.298.098-8.597.137-12.895.137H90.932c-4.298 0-8.597-.04-12.895-.137a320.093 320.093 0 0 1-11.48-.452 193.696 193.696 0 0 1-10.13-.836 116.71 116.71 0 0 1-8.863-1.306 75.942 75.942 0 0 1-7.653-1.818 49.07 49.07 0 0 1-6.501-2.397 37.038 37.038 0 0 1-5.47-3.026 30.938 30.938 0 0 1-4.524-3.714 30.615 30.615 0 0 1-3.738-4.529 36.766 36.766 0 0 1-3.03-5.443 50.903 50.903 0 0 1-2.4-6.494 75.567 75.567 0 0 1-1.829-7.634 121.69 121.69 0 0 1-1.298-8.832c-.374-3.37-.65-6.74-.846-10.12a317.535 317.535 0 0 1-.453-11.456 623.851 623.851 0 0 1-.137-12.87V97.014c0-4.293.049-8.577.137-12.87.079-3.822.236-7.634.453-11.456.197-3.38.472-6.75.846-10.11.324-2.967.757-5.914 1.298-8.842a75.568 75.568 0 0 1 1.83-7.634 51.46 51.46 0 0 1 2.4-6.494 37.27 37.27 0 0 1 3.03-5.443 31.05 31.05 0 0 1 3.737-4.52 30.384 30.384 0 0 1 4.525-3.723 37.039 37.039 0 0 1 5.469-3.026 50.494 50.494 0 0 1 6.501-2.397 75.943 75.943 0 0 1 7.653-1.818c2.931-.55 5.892-.982 8.863-1.297 3.364-.373 6.747-.648 10.13-.845a344.71 344.71 0 0 1 11.48-.452c4.298-.088 8.597-.137 12.895-.127H165.078z" fill-rule="evenodd" fill="url(#c)"/></g></svg>

<?xml version="1.0" standalone="no"?><!-- Generator: Gravit.io --><svg xmlns="http://www.w3.org/2000/svg" xmlns:xlink="http://www.w3.org/1999/xlink" style="isolation:isolate" viewBox="0 0 256 256" width="256" height="256"><defs><filter id="dn1mTJXWdF25DdNBuwEabgqaN4d0vmuP" x="-200%" y="-200%" width="400%" height="400%" filterUnits="objectBoundingBox" color-interpolation-filters="sRGB"><feGaussianBlur xmlns="http://www.w3.org/2000/svg" in="SourceGraphic" stdDeviation="4.293609062839028"/><feOffset xmlns="http://www.w3.org/2000/svg" dx="0" dy="4" result="pf_100_offsetBlur"/><feFlood xmlns="http://www.w3.org/2000/svg" flood-color="#000000" flood-opacity="0.4"/><feComposite xmlns="http://www.w3.org/2000/svg" in2="pf_100_offsetBlur" operator="in" result="pf_100_dropShadow"/><feBlend xmlns="http://www.w3.org/2000/svg" in="SourceGraphic" in2="pf_100_dropShadow" mode="normal"/></filter></defs><g filter="url(#dn1mTJXWdF25DdNBuwEabgqaN4d0vmuP)"><linearGradient id="_lgradient_119" x1="0.5666666542561158" y1="1.0714286580680756" x2="0.566666654256116" y2="-0.7417031369901192" gradientTransform="matrix(244.648,0,0,228.338,5.619,11.952)" gradientUnits="userSpaceOnUse"><stop offset="0%" stop-opacity="1" style="stop-color:rgb(51,51,51)"/><stop offset="100%" stop-opacity="1" style="stop-color:rgb(77,77,77)"/></linearGradient><path d=" M 165.628 11.952 C 239.684 11.952 250.267 22.509 250.267 96.495 L 250.267 155.746 C 250.267 229.733 239.684 240.29 165.628 240.29 L 90.259 240.29 C 16.203 240.29 5.619 229.733 5.619 155.746 L 5.619 96.495 C 5.619 22.509 16.203 11.952 90.259 11.952 L 165.628 11.952 Z " id="shape" fill="url(#_lgradient_119)"/></g><g opacity="0.4"><linearGradient id="_lgradient_120" x1="0.5166666666666668" y1="0" x2="0.5166666666666666" y2="1.0000000000000002" gradientTransform="matrix(244.65,0,0,228.34,5.68,11.95)" gradientUnits="userSpaceOnUse"><stop offset="0%" stop-opacity="1" style="stop-color:rgb(255,255,255)"/><stop offset="12.5%" stop-opacity="0.09803922" style="stop-color:rgb(255,255,255)"/><stop offset="92.500001%" stop-opacity="0.09803922" style="stop-color:rgb(0,0,0)"/><stop offset="100%" stop-opacity="0.49803922" style="stop-color:rgb(0,0,0)"/></linearGradient><path d=" M 165.068 11.951 C 169.396 11.941 173.724 11.991 178.052 12.089 C 181.927 12.167 185.803 12.315 189.678 12.541 C 193.131 12.737 196.583 13.022 200.026 13.395 C 203.085 13.73 206.144 14.181 209.174 14.741 C 211.889 15.243 214.574 15.881 217.22 16.657 C 219.62 17.355 221.971 18.219 224.243 19.241 C 226.358 20.184 228.384 21.304 230.302 22.591 C 232.142 23.829 233.863 25.244 235.437 26.806 C 237.001 28.378 238.417 30.088 239.656 31.925 C 240.945 33.841 242.066 35.865 243.02 37.967 C 244.043 40.247 244.909 42.585 245.617 44.972 C 246.394 47.615 247.034 50.297 247.535 53.009 C 248.096 56.035 248.548 59.081 248.883 62.136 C 249.257 65.575 249.542 69.014 249.739 72.462 C 249.965 76.323 250.112 80.194 250.201 84.055 C 250.289 88.378 250.339 92.701 250.329 97.014 L 250.329 155.226 C 250.339 159.549 250.289 163.862 250.201 168.185 C 250.112 172.056 249.965 175.917 249.739 179.778 C 249.542 183.226 249.257 186.675 248.883 190.104 C 248.548 193.159 248.096 196.215 247.535 199.241 C 247.034 201.943 246.394 204.625 245.617 207.268 C 244.909 209.655 244.043 212.003 243.02 214.273 C 242.066 216.385 240.945 218.399 239.656 220.315 C 238.417 222.152 237.001 223.872 235.437 225.434 C 233.863 226.996 232.142 228.411 230.302 229.649 C 228.384 230.936 226.358 232.056 224.243 232.999 C 221.971 234.021 219.62 234.885 217.22 235.593 C 214.574 236.369 211.889 237.007 209.174 237.499 C 206.144 238.068 203.085 238.51 200.026 238.845 C 196.583 239.218 193.131 239.503 189.678 239.699 C 185.803 239.925 181.927 240.073 178.052 240.161 C 173.724 240.249 169.396 240.299 165.068 240.289 L 90.942 240.289 C 86.614 240.299 82.286 240.249 77.958 240.161 C 74.083 240.073 70.207 239.925 66.332 239.699 C 62.879 239.503 59.427 239.218 55.984 238.845 C 52.925 238.51 49.866 238.068 46.836 237.499 C 44.121 237.007 41.436 236.369 38.79 235.593 C 36.39 234.885 34.039 234.021 31.767 232.999 C 29.652 232.056 27.626 230.936 25.708 229.649 C 23.868 228.411 22.147 226.996 20.573 225.434 C 19.009 223.872 17.593 222.152 16.354 220.315 C 15.065 218.399 13.944 216.385 12.99 214.273 C 11.967 212.003 11.101 209.655 10.393 207.268 C 9.616 204.625 8.976 201.943 8.475 199.241 C 7.914 196.215 7.462 193.159 7.127 190.104 C 6.753 186.675 6.468 183.226 6.271 179.778 C 6.045 175.917 5.898 172.056 5.809 168.185 C 5.721 163.862 5.671 159.549 5.681 155.226 L 5.681 97.014 C 5.671 92.701 5.721 88.378 5.809 84.055 C 5.898 80.194 6.045 76.323 6.271 72.462 C 6.468 69.014 6.753 65.575 7.127 62.136 C 7.462 59.081 7.914 56.035 8.475 53.009 C 8.976 50.297 9.616 47.615 10.393 44.972 C 11.101 42.585 11.967 40.247 12.99 37.967 C 13.944 35.865 15.065 33.841 16.354 31.925 C 17.593 30.088 19.009 28.378 20.573 26.806 C 22.147 25.244 23.868 23.829 25.708 22.591 C 27.626 21.304 29.652 20.184 31.767 19.241 C 34.039 18.219 36.39 17.355 38.79 16.657 C 41.436 15.881 44.121 15.243 46.836 14.741 C 49.866 14.181 52.925 13.73 55.984 13.395 C 59.427 13.022 62.879 12.737 66.332 12.541 C 70.207 12.315 74.083 12.167 77.958 12.089 C 82.286 11.991 86.614 11.941 90.942 11.951 L 165.068 11.951 Z  M 165.078 15.96 C 169.376 15.95 173.675 15.999 177.973 16.087 C 181.8 16.176 185.626 16.323 189.452 16.539 C 192.836 16.736 196.219 17.011 199.583 17.384 C 202.554 17.699 205.515 18.131 208.446 18.681 C 211.023 19.153 213.58 19.762 216.099 20.499 C 218.322 21.147 220.495 21.953 222.6 22.896 C 224.509 23.751 226.338 24.763 228.069 25.922 C 229.692 27.013 231.207 28.26 232.594 29.646 C 233.981 31.031 235.23 32.544 236.332 34.165 C 237.492 35.894 238.506 37.712 239.361 39.608 C 240.306 41.72 241.112 43.892 241.761 46.102 C 242.509 48.617 243.109 51.162 243.591 53.736 C 244.132 56.664 244.565 59.611 244.889 62.578 C 245.263 65.938 245.539 69.308 245.735 72.688 C 245.952 76.51 246.109 80.322 246.188 84.144 C 246.276 88.437 246.325 92.721 246.325 97.014 C 246.325 97.014 246.325 97.014 246.325 97.014 L 246.325 155.226 C 246.325 155.226 246.325 155.226 246.325 155.226 C 246.325 159.519 246.276 163.803 246.188 168.096 C 246.109 171.918 245.952 175.74 245.735 179.552 C 245.539 182.932 245.263 186.302 244.889 189.672 C 244.565 192.629 244.132 195.576 243.591 198.504 C 243.109 201.078 242.509 203.623 241.761 206.138 C 241.112 208.358 240.306 210.52 239.361 212.632 C 238.506 214.528 237.492 216.356 236.332 218.075 C 235.23 219.706 233.981 221.219 232.594 222.604 C 231.207 223.98 229.692 225.227 228.069 226.318 C 226.338 227.477 224.509 228.489 222.6 229.344 C 220.495 230.297 218.322 231.093 216.099 231.741 C 213.58 232.478 211.023 233.087 208.446 233.559 C 205.515 234.109 202.554 234.541 199.583 234.865 C 196.219 235.229 192.836 235.514 189.452 235.701 C 185.626 235.917 181.8 236.074 177.973 236.153 C 173.675 236.251 169.376 236.29 165.078 236.29 C 165.078 236.29 165.078 236.29 165.068 236.29 L 90.942 236.29 C 90.932 236.29 90.932 236.29 90.932 236.29 C 86.634 236.29 82.335 236.251 78.037 236.153 C 74.21 236.074 70.384 235.917 66.558 235.701 C 63.174 235.514 59.791 235.229 56.427 234.865 C 53.456 234.541 50.495 234.109 47.564 233.559 C 44.987 233.087 42.43 232.478 39.911 231.741 C 37.688 231.093 35.515 230.297 33.41 229.344 C 31.501 228.489 29.672 227.477 27.941 226.318 C 26.318 225.227 24.803 223.98 23.416 222.604 C 22.029 221.219 20.78 219.706 19.678 218.075 C 18.518 216.356 17.504 214.528 16.649 212.632 C 15.704 210.52 14.898 208.358 14.249 206.138 C 13.501 203.623 12.901 201.078 12.419 198.504 C 11.878 195.576 11.445 192.629 11.121 189.672 C 10.747 186.302 10.472 182.932 10.275 179.552 C 10.058 175.74 9.901 171.918 9.822 168.096 C 9.734 163.803 9.685 159.519 9.685 155.226 C 9.685 155.226 9.685 155.226 9.685 155.226 L 9.685 97.014 C 9.685 97.014 9.685 97.014 9.685 97.014 C 9.685 92.721 9.734 88.437 9.822 84.144 C 9.901 80.322 10.058 76.51 10.275 72.688 C 10.472 69.308 10.747 65.938 11.121 62.578 C 11.445 59.611 11.878 56.664 12.419 53.736 C 12.901 51.162 13.501 48.617 14.249 46.102 C 14.898 43.892 15.704 41.72 16.649 39.608 C 17.504 37.712 18.518 35.894 19.678 34.165 C 20.78 32.544 22.029 31.031 23.416 29.646 C 24.803 28.26 26.318 27.013 27.941 25.922 C 29.672 24.763 31.501 23.751 33.41 22.896 C 35.515 21.953 37.688 21.147 39.911 20.499 C 42.43 19.762 44.987 19.153 47.564 18.681 C 50.495 18.131 53.456 17.699 56.427 17.384 C 59.791 17.011 63.174 16.736 66.558 16.539 C 70.384 16.323 74.21 16.176 78.037 16.087 C 82.335 15.999 86.634 15.95 90.932 15.96 C 90.932 15.96 90.932 15.96 90.942 15.96 L 165.068 15.96 C 165.078 15.96 165.078 15.96 165.078 15.96 Z " fill-rule="evenodd" id="highlight" fill="url(#_lgradient_120)"/></g><g id="anydesk"><g opacity="0.2"><path d=" M 110.498 74.25 C 107.617 74.25 104.734 75.324 102.581 77.477 L 58.727 121.336 C 54.42 125.643 54.426 132.851 58.734 137.158 L 102.587 181.016 C 106.894 185.324 114.109 185.33 118.416 181.023 L 162.27 137.165 C 166.577 132.857 166.577 125.643 162.27 121.336 L 118.416 77.477 C 116.263 75.324 113.38 74.25 110.498 74.25 Z " id="Path" fill="rgb(0,0,0)"/></g><path d=" M 110.498 71.75 C 107.617 71.75 104.734 72.824 102.581 74.977 L 58.727 118.836 C 54.42 123.143 54.426 130.351 58.734 134.658 L 102.587 178.516 C 106.894 182.824 114.109 182.83 118.416 178.523 L 162.27 134.665 C 166.577 130.357 166.577 123.143 162.27 118.836 L 118.416 74.977 C 116.263 72.824 113.38 71.75 110.498 71.75 Z " id="Path" fill="rgb(142,142,142)"/><g opacity="0.2"><path d=" M 110.5 71.75 C 107.619 71.75 104.734 72.824 102.58 74.978 L 58.728 118.835 C 56.264 121.298 55.261 124.705 55.617 127.98 C 55.887 125.54 56.891 123.171 58.728 121.335 L 102.58 77.478 C 104.734 75.324 107.619 74.25 110.5 74.25 C 113.381 74.25 116.261 75.324 118.415 77.478 L 162.268 121.335 C 164.108 123.175 165.115 125.552 165.383 128 C 165.742 124.718 164.735 121.302 162.268 118.835 L 118.415 74.978 C 116.261 72.824 113.381 71.75 110.5 71.75 Z " id="Path" fill="rgb(255,255,255)"/></g><g style="mix-blend-mode:normal;" opacity="0.2"><path d="M 113.036 85.305 L 154.458 126.727 C 155.854 128.123 155.854 130.388 154.458 131.783 L 113.036 173.205 C 111.641 174.601 109.376 174.601 107.98 173.205 L 66.558 131.783 C 65.163 130.388 65.163 128.123 66.558 126.727 L 107.98 85.305 C 109.376 83.91 111.641 83.91 113.036 85.305 Z" style="stroke:none;fill:#000000;stroke-miterlimit:10;"/></g><path d="M 113.036 82.795 L 154.458 124.217 C 155.854 125.612 155.854 127.878 154.458 129.273 L 113.036 170.695 C 111.641 172.09 109.376 172.09 107.98 170.695 L 66.558 129.273 C 65.163 127.878 65.163 125.612 66.558 124.217 L 107.98 82.795 C 109.376 81.4 111.641 81.4 113.036 82.795 Z" style="stroke:none;fill:#FFFFFF;stroke-miterlimit:10;"/><g opacity="0.2"><path d=" M 145.498 74.25 C 142.617 74.25 139.734 75.324 137.581 77.478 L 93.727 121.336 C 89.42 125.643 89.426 132.851 93.734 137.158 L 137.587 181.016 C 141.894 185.324 149.109 185.33 153.416 181.023 L 197.269 137.165 C 201.577 132.857 201.577 125.643 197.269 121.336 L 153.416 77.478 C 151.263 75.324 148.38 74.25 145.498 74.25 Z " id="Path" fill="rgb(0,0,0)"/></g><linearGradient id="_lgradient_121" x1="-0.03333333745301812" y1="-0.0714285362430962" x2="1.0333332929604209" y2="0.9241264041420444" gradientTransform="matrix(110,0,0,110,90.5,71.75)" gradientUnits="userSpaceOnUse"><stop offset="0%" stop-opacity="1" style="stop-color:rgb(231,38,98)"/><stop offset="48.271722%" stop-opacity="1" style="stop-color:rgb(236,60,80)"/><stop offset="100%" stop-opacity="1" style="stop-color:rgb(255,123,102)"/></linearGradient><path d=" M 145.498 71.75 C 142.617 71.75 139.734 72.824 137.581 74.978 L 93.727 118.836 C 89.42 123.143 89.426 130.351 93.734 134.658 L 137.587 178.516 C 141.894 182.824 149.109 182.83 153.416 178.523 L 197.269 134.665 C 201.577 130.357 201.577 123.143 197.269 118.836 L 153.416 74.978 C 151.263 72.824 148.38 71.75 145.498 71.75 Z " id="Path" fill="url(#_lgradient_121)"/><g opacity="0.2"><path d=" M 145.5 71.75 C 142.619 71.75 139.734 72.824 137.58 74.978 L 93.728 118.835 C 91.264 121.298 90.261 124.705 90.617 127.98 C 90.887 125.54 91.891 123.171 93.728 121.335 L 137.58 77.478 C 139.734 75.324 142.619 74.25 145.5 74.25 C 148.381 74.25 151.261 75.324 153.415 77.478 L 197.268 121.335 C 199.108 123.175 200.115 125.552 200.383 128 C 200.742 124.718 199.735 121.302 197.268 118.835 L 153.415 74.978 C 151.261 72.824 148.381 71.75 145.5 71.75 Z " id="Path" fill="rgb(255,255,255)"/></g></g></svg>
